X:1
T:Title
%%score { 1 | 2 }
L:1/8
M:4/4
K:G
V:1 treble nm="Grand Piano"
V:2 bass 
V:1
 z4 z2[Q:1/4=100] G>A | B2 D2 D2 G>A | B>B A>G B2 A>G | [EA]>[EA] [EG]>[CE] [B,D]>[B,D] [DG]>A | %4
[M:7/8] B>BA>G A3 |[M:1/4] G>A |[M:4/4] B2 D2 D2 G>A | B>B A>G [FA]2 B>c | d>d d>d d>c B>[EA] | %9
[M:7/8] G>GB>A [B,DG]3 |[M:1/8] d |[M:4/4] d>d d>d d2 B>c | d>d d>d d3 B | %13
 [FA]>[FA] [FA]>[FA] [FA]<[FA] [FA]>[GB] | [Ac]2 [Fd]2 [GB]3 d | d>d d>d d2 B>G | %16
 [EGc]>[EGc] [EGc]>[EGc] [EGc]3 [Ge] | d>d d>d d>c B>[EA] |[M:7/8] G<GB>A [B,DG]3 |] %19
V:2
 z4 z2 [G,B,D]>[G,CD] | [G,D]2 [G,B,]2 [G,B,]2[K:treble] [G,B,D]>[G,CD] | %2
 [G,DG]>[G,DG] [G,CD]>[G,B,D] [G,DG]2[K:bass] [G,CD]>[G,B,D] | %3
 [C,C]>[C,C] [C,G,]>[C,G,] [G,,G,]>[G,,G,] [B,,G,]>[D,F,D] | %4
[M:7/8] [G,D]>[G,D][F,A,D]>[E,A,^C] [D,F,D]3 |[M:1/4] [G,B,D]>[G,CE] | %6
[M:4/4] [G,D]2 [G,B,]2 [G,B,]2[K:treble] [G,B,D]>[G,CD] | %7
 [G,DG]>[G,DG] [G,CD]>[K:bass][G,B,D] [D,D]2[K:treble] [G,DG]>[G,DG] | %8
 [G,B,G]>[G,B,G] [G,B,G]>[G,B,G] [G,B,G]>[G,EF] [G,DG]>[K:bass][C,C] | %9
[M:7/8] [D,B,D]>[D,B,D][D,D]>[D,CD] [G,,G,]3 |[M:1/8][K:treble] [G,B,G] | %11
[M:4/4] [G,B,G]>[G,B,G] [G,B,G]>[G,B,G] [G,B,G]2 [G,DG]>[G,DG] | %12
 [G,B,G]>[G,B,G] [G,B,G]>[G,B,G] [G,B,G]3 [G,DG] | %13
 [D,D]>[D,D] [D,D]>[D,D] [D,D]<[D,D] [D,D]>[E,D] | [D,D]2 [D,D]2 [D,D]3[K:treble] [G,B,G] | %15
 [G,B,G]>[G,B,G] [G,B,G]>[G,B,G] [G,B,G]2 [G,DG]>[K:bass][G,B,] | C,>C, C,>C, C,3 [C,C] | %17
 [G,B,G]>[G,B,G] [G,B,G]>[G,B,G] [G,B,G]>[G,EG] [G,DG]>[K:bass][C,C] | %18
[M:7/8] [D,B,D]<[D,B,D][D,D]>[D,CD] [G,,G,]3 |] %19

